X:17
T:Murray Moon
T:from the 1920 musical "F.F.F." 
C:lyrics C,J.DeGaris
C:music Reginald Stoneham
S:nla.obj-165511250
O:Australia
R:Foxtrot
M:4/4
L:1/8
K:Gmaj
[I: MIDI=program 59]B2c (BB2)G2 | A2B (AA2)F|(G8 | G4)z4 | 
w:Like a bird*re-turn-ing to *it's nest
B2c(BB2)G2 | A2B2A2F2 | (G8 | G2)G2A2B2 | 
w:I will fly*to home sweet home and rest* It seems that
c4(G4 | G2)G3/2^F/G3/2F/G3/A/ | B4(G4 | G2)B2B2B2 | 
w:al-ways*I can hear the Murr-ay call-ing *in tones en-
B4(A4 | A)zA2B2A2 | (d8 | d4)z4 | 
w:thrall-ing*from out the west
B2=c2B2G2 | A (BB2)A2F2 | (G8 | G4)z4 | 
w:Drif-ting on it's bo-som* let me glide
B2c (BB2)G2 | A2B2A2F2 | (G8 | G2)G2A2B2 | 
w:Where the nat-*tive woo'd his dus-ky bride*And in the 
dcd (cc4 |c2)G2A2^A2|c B c (BB4 | B2)B2A2G2 | 
w:sha-dows of grey**just dream the hours*a-way**The night birds
B4  (A4 | A2) A3/ 2B/ ^c2A2 | (d8 | d2)BcB|
w:call-ing*at the close of day*the stars are
B4(A4 | A2)c2B2A2 | (D8 | D2)E2F2G2 | 
w:glea-ming* and there's a charm*that sets me
A4(A4 | A2)A2c2c2 | (B8 | B2)B2c2B2 | 
w:dream-ing*when all is calm *the sigh-ing
B4(A4 | A2)c2B2A2 | (G8| G2)G2F2E2 | F4(A4 |  
w:gum-trees*breath my-ste-ry*the rov-ing black men*I seem to
A2)G2F2E2 |(A8 | A)zA2B2c2 | d4(d4 | d2)d2d2B2 | 
w:*I seem to see* and through th moon light*they fade a-
(^c8|c2)A2A2B2 | =c4(c4 | c2)c2B2^A2 | (B8 | 
w:way*but leave a mem-'ry*of yes-ter day
B2) B2 c2 B2 | B4(A4 | A2)c3/2c/B2A2 | (D8 | D)zD2E2G2 | 
w:*I see my home-stead*by the big la-goon*'Twas but the
A4(A4 | A)z A3/2B/c2B2 | (G8 | G)zBcB:|
w:ma-gic*of the mu-rray moon

